src/icons/main-info.svg

<?xml version="1.0" encoding="UTF-8"?>
<svg width="14px" height="14px" viewBox="0 0 14 14" version="1.1" xmlns="http://www.w3.org/2000/svg" xmlns:xlink="http://www.w3.org/1999/xlink">
    <!-- Generator: Sketch 59 (86127) - https://sketch.com -->
    <title>HDL/Icon/Standard/info</title>
    <desc>Created with Sketch.</desc>
    <g id="Colors" stroke="none" stroke-width="1" fill="none" fill-rule="evenodd">
        <g id="Main-Icons" transform="translate(-1121.000000, -312.000000)" fill="#4D5969">
            <g id="Info" transform="translate(1100.000000, 294.000000)">
                <g id="HDL/Icon/Standard/info" transform="translate(21.000000, 18.000000)">
                    <path d="M8.71299094,9.98189426 C8.41691843,11.1238882 5.41389728,11.2084804 5.62537765,9.68582176 C5.75226587,8.67071601 5.96374623,7.69790634 6.13293051,6.68280061 C6.21752266,6.04835951 5.79456193,6.25983987 5.45619335,6.13295166 C5.20241692,6.00606345 5.20241692,5.70999094 5.49848943,5.66769486 C5.87915407,5.58310272 7.19033232,5.62539879 7.65558912,5.62539879 C7.90936556,5.62539879 8.03625377,5.75228701 8.03625377,5.96376737 C8.07854985,6.17524773 8.03625377,6.38672809 7.99395771,6.55591239 C7.82477341,7.52872206 7.57099698,8.54382779 7.48640484,9.47434139 C7.44410876,9.68582176 7.48640484,10.0664864 7.78247734,10.0664864 C8.07854985,10.0241903 8.20543807,9.89730212 8.45921451,9.81270996 C8.62839879,9.72811782 8.71299094,9.85500604 8.71299094,9.98189426 Z M7.2326284,3.12990936 C7.82477341,3.12990936 8.24773413,3.59516616 8.24773413,4.14501511 C8.24773413,4.73716013 7.78247734,5.20241692 7.2326284,5.16012085 C6.68277946,5.16012085 6.21752266,4.69486405 6.21752266,4.14501511 C6.21752266,3.59516616 6.68277946,3.12990936 7.2326284,3.12990936 Z M6.97885196,1.05740181 C3.72205438,1.05740181 1.05740181,3.72205438 1.05740181,6.97885197 C1.05740181,10.2779456 3.72205438,12.9003021 6.97885196,12.9003021 C10.2779456,12.9003021 12.9003021,10.2779456 12.9003021,6.97885197 C12.9003021,3.72205438 10.2779456,1.05740181 6.97885196,1.05740181 Z M6.97885196,0 C10.8700906,0 14,3.12990936 14,6.97885197 C14,10.8700906 10.8700906,14 6.97885196,14 C3.12990937,14 0,10.8700906 0,6.97885197 C0,3.12990936 3.12990937,0 6.97885196,0 Z" id="Combined-Shape-Copy"></path>
                </g>
            </g>
        </g>
    </g>
</svg>

<?xml version="1.0" encoding="utf-8"?>
<!-- Generator: Adobe Illustrator 20.1.0, SVG Export Plug-In . SVG Version: 6.00 Build 0)  -->
<svg version="1.1" id="Layer_1" xmlns="http://www.w3.org/2000/svg" xmlns:xlink="http://www.w3.org/1999/xlink" x="0px" y="0px"
	 viewBox="0 0 14 14" style="enable-background:new 0 0 14 14;" xml:space="preserve">
<style type="text/css">
	.st0{fill:#4D5969;}
</style>
<title>HDL/Icon/Standard/info</title>
<desc>Created with Sketch.</desc>
<g id="Colors">
	<g id="Main-Icons" transform="translate(-1121.000000, -312.000000)">
		<g id="Info" transform="translate(1100.000000, 294.000000)">
			<g id="HDL_x2F_Icon_x2F_Standard_x2F_info" transform="translate(21.000000, 18.000000)">
				<path id="Combined-Shape-Copy" class="st0" d="M8.7,10c-0.3,1.1-3.3,1.2-3.1-0.3c0.1-1,0.3-2,0.5-3C6.2,6,5.8,6.3,5.5,6.1
					C5.2,6,5.2,5.7,5.5,5.7c0.4-0.1,1.7,0,2.2,0C7.9,5.6,8,5.8,8,6c0,0.2,0,0.4,0,0.6c-0.2,1-0.4,2-0.5,2.9c0,0.2,0,0.6,0.3,0.6
					c0.3,0,0.4-0.2,0.7-0.3C8.6,9.7,8.7,9.9,8.7,10z M7.2,3.1c0.6,0,1,0.5,1,1c0,0.6-0.5,1.1-1,1c-0.5,0-1-0.5-1-1S6.7,3.1,7.2,3.1z
					 M7,1.1C3.7,1.1,1.1,3.7,1.1,7c0,3.3,2.7,5.9,5.9,5.9c3.3,0,5.9-2.6,5.9-5.9C12.9,3.7,10.3,1.1,7,1.1z M7,0c3.9,0,7,3.1,7,7
					c0,3.9-3.1,7-7,7c-3.8,0-7-3.1-7-7C0,3.1,3.1,0,7,0z"/>
			</g>
		</g>
	</g>
</g>
</svg>
